src/gen3-ui-component/images/icons/datafile.svg

<?xml version="1.0" encoding="UTF-8"?>
<svg width="60px" height="60px" viewBox="0 0 60 60" version="1.1" xmlns="http://www.w3.org/2000/svg" xmlns:xlink="http://www.w3.org/1999/xlink">
    <!-- Generator: Sketch 51.2 (57519) - http://www.bohemiancoding.com/sketch -->
    <title>bdbag</title>
    <desc>Created with Sketch.</desc>
    <defs></defs>
    <g id="bdbag" stroke="none" stroke-width="1" fill="none" fill-rule="evenodd">
        <g id="cloud-computing" transform="translate(30.500000, 14.000000) rotate(-180.000000) translate(-30.500000, -14.000000) translate(16.000000, 6.000000)" fill="#606060" fill-rule="nonzero">
            <path d="M7.9634981,6.62410215 L5.47072243,6.62410215 C5.13612167,5.50678372 4.06539924,4.68475658 2.78555133,4.68475658 C1.24638783,4.68475658 0,5.88188348 0,7.34237829 C0,8.81085395 1.25475285,10 2.78555133,10 C4.05703422,10 5.13612167,9.17797287 5.47072243,8.06065443 L7.9634981,8.06065443 C9.6365019,8.06065443 11,6.75977654 11,5.16360734 L11,0.726256983 C11,0.327214685 10.6570342,0 10.2387833,0 C9.82053232,0 9.47756654,0.327214685 9.47756654,0.726256983 L9.47756654,5.16360734 C9.48593156,5.96967279 8.80836502,6.62410215 7.9634981,6.62410215 Z M2.79391635,8.56344773 C2.09125475,8.56344773 1.52243346,8.0207502 1.52243346,7.35035914 C1.52243346,6.67996808 2.09125475,6.13727055 2.79391635,6.13727055 C3.49657795,6.13727055 4.06539924,6.67996808 4.06539924,7.35035914 C4.06539924,8.01276935 3.48821293,8.56344773 2.79391635,8.56344773 Z" id="Shape"></path>
            <path d="M18.7612167,0 C18.3429658,0 18,0.327214685 18,0.726256983 L18,5.16360734 C18,6.75977654 19.3634981,8.06065443 21.0365019,8.06065443 L23.5292776,8.06065443 C23.8638783,9.17797287 24.9346008,10 26.2144487,10 C27.7536122,10 29,8.8028731 29,7.34237829 C29,5.87390263 27.7452471,4.68475658 26.2144487,4.68475658 C24.9429658,4.68475658 23.8638783,5.50678372 23.5292776,6.62410215 L21.0448669,6.62410215 C20.208365,6.62410215 19.5224335,5.96967279 19.5224335,5.17158819 L19.5224335,0.734237829 C19.5224335,0.319233839 19.1794677,0 18.7612167,0 Z M26.2144487,6.11332801 C26.9171103,6.11332801 27.4859316,6.65602554 27.4859316,7.3264166 C27.4859316,7.99680766 26.9171103,8.53950519 26.2144487,8.53950519 C25.5117871,8.53950519 24.9429658,7.99680766 24.9429658,7.3264166 C24.9429658,6.66400638 25.5201521,6.11332801 26.2144487,6.11332801 Z" id="Shape"></path>
            <path d="M15.0090067,0 C14.5586724,0 14.1893982,0.343275772 14.1893982,0.761904762 L14.1893982,10.5327054 C12.9554822,10.859236 12.0368002,11.9058085 12.0007735,13.1449503 C11.9827601,13.8901099 12.2799808,14.6017792 12.8293886,15.1376243 C13.3787965,15.6734694 14.1263514,15.9832548 14.9279465,16 L15,16 C16.6121968,16 17.9631998,14.7776033 17.9992265,13.2789116 C18.0172399,12.533752 17.7200192,11.8220827 17.1706114,11.2862376 C16.7923306,10.9178441 16.3239829,10.6582941 15.8106018,10.5243328 L15.8106018,0.753532182 C15.8286151,0.334903192 15.459341,0 15.0090067,0 Z M16.378023,13.2454212 C16.3600096,13.9319728 15.747555,14.4845631 15.0090067,14.4845631 L14.9729799,14.4845631 C14.6037058,14.4761905 14.2704584,14.3338566 14.0182712,14.0910518 C13.766084,13.848247 13.6309837,13.5217164 13.6399904,13.1784406 C13.6580037,12.4918891 14.2704584,11.9392988 15.0090067,11.9392988 L15.0450334,11.9392988 C15.4143076,11.9476714 15.747555,12.0900052 15.9997422,12.33281 C16.2519294,12.5756149 16.3870297,12.9021455 16.378023,13.2454212 Z" id="Shape"></path>
        </g>
        <g id="folder"></g>
        <path d="M57.49,27 L54,27 L54,20.732 C54,19.226 52.774,18 51.268,18 L50,18 L50,0 L10,0 L10,2 L7,2 L7,4 L4,4 L4,11 L2.732,11 C1.226,11 0,12.226 0,13.732 L0,57.419 L0.006,57.419 C0.001,57.982 0.176,58.533 0.528,58.994 C1.018,59.634 1.76,60 2.565,60 L47.324,60 C48.481,60 49.499,59.22 49.773,58.187 L60,30.149 L60,29.972 C60,28.25 58.944,27 57.49,27 Z M51.268,20 C51.672,20 52,20.328 52,20.732 L52,27 L50,27 L50,20 L51.268,20 Z M48,2 L48,18 L48,27 L12.731,27 C12.498,27 12.274,27.039 12.057,27.098 C12.039,27.103 12.018,27.101 12,27.106 L12,2 L48,2 Z M10,4 L10,29.585 L9.937,29.758 L9,32.326 L9,4 L10,4 Z M6,6 L7,6 L7,37.81 L6,40.551 L6,11 L6,6 Z M2,13.732 C2,13.328 2.329,13 2.732,13 L4,13 L4,45.943 L2,51.398 L2,13.732 Z M47.868,57.584 C47.803,57.829 47.579,58 47.324,58 L2.565,58 C2.322,58 2.18,57.861 2.117,57.778 C2.054,57.696 1.957,57.522 1.994,57.37 L4,51.87 L4,51.871 L7,43.646 L10,35.421 L10,35.424 L11.932,30.123 L12,29.938 L12.16,29.499 L12.186,29.417 C12.252,29.172 12.477,29 12.731,29 L48,29 L50,29 L54,29 L57.49,29 C57.869,29 57.967,29.546 57.991,29.819 L47.868,57.584 Z" id="Shape" fill="#606060" fill-rule="nonzero"></path>
    </g>
</svg>

<svg width="60" height="60" xmlns="http://www.w3.org/2000/svg"><g fill="#606060" fill-rule="nonzero"><path d="M37.037 15.376h2.492c.335 1.117 1.406 1.94 2.685 1.94 1.54 0 2.786-1.198 2.786-2.658C45 13.189 43.745 12 42.214 12c-1.271 0-2.35.822-2.685 1.94h-2.492c-1.674 0-3.037 1.3-3.037 2.896v4.438c0 .399.343.726.761.726s.761-.327.761-.726v-4.438c-.008-.806.67-1.46 1.515-1.46Zm5.17-1.94c.702 0 1.27.543 1.27 1.214 0 .67-.568 1.213-1.27 1.213-.704 0-1.272-.543-1.272-1.213 0-.663.577-1.213 1.271-1.213ZM26.239 22c.418 0 .761-.327.761-.726v-4.438c0-1.596-1.363-2.897-3.037-2.897h-2.492C21.136 12.822 20.065 12 18.786 12 17.246 12 16 13.197 16 14.658c0 1.468 1.255 2.657 2.786 2.657 1.271 0 2.35-.822 2.685-1.94h2.484c.837 0 1.523.655 1.523 1.453v4.438c0 .415.343.734.76.734Zm-7.453-6.113c-.703 0-1.272-.543-1.272-1.213s.569-1.214 1.272-1.214c.702 0 1.271.543 1.271 1.214 0 .662-.577 1.213-1.271 1.213ZM29.991 22c.45 0 .82-.343.82-.762v-9.77c1.234-.327 2.152-1.374 2.188-2.613a2.682 2.682 0 0 0-.828-1.993A3.087 3.087 0 0 0 30.072 6H30c-1.612 0-2.963 1.222-3 2.721-.017.745.28 1.457.83 1.993.378.368.846.628 1.36.762v9.77c-.019.42.35.754.801.754ZM28.622 8.755c.018-.687.63-1.24 1.369-1.24h.036c.37.009.703.151.955.394.252.243.387.57.378.913-.018.686-.63 1.239-1.369 1.239h-.036A1.409 1.409 0 0 1 29 9.667a1.215 1.215 0 0 1-.378-.912Z"/><path d="M57.49 27H54v-6.268A2.736 2.736 0 0 0 51.268 18H50V0H10v2H7v2H4v7H2.732A2.736 2.736 0 0 0 0 13.732v43.687h.006c-.005.563.17 1.114.522 1.575A2.546 2.546 0 0 0 2.565 60h44.759c1.157 0 2.175-.78 2.449-1.813L60 30.149v-.177C60 28.25 58.944 27 57.49 27Zm-6.222-7c.404 0 .732.328.732.732V27h-2v-7h1.268ZM48 2v25H12.731a2.56 2.56 0 0 0-.674.098c-.018.005-.039.003-.057.008V2h36ZM10 4v25.585l-.063.173L9 32.326V4h1ZM6 6h1v31.81l-1 2.741V6Zm-4 7.732c0-.404.329-.732.732-.732H4v32.943l-2 5.455V13.732Zm45.868 43.852a.562.562 0 0 1-.544.416H2.565a.552.552 0 0 1-.448-.222c-.063-.082-.16-.256-.123-.408L4 51.87v.001l3-8.225 3-8.225v.003l1.932-5.301.068-.185.16-.439.026-.082a.566.566 0 0 1 .545-.417H57.49c.379 0 .477.546.501.819L47.868 57.584Z"/></g></svg>
